X: 21042
T: WHEN THE ROSY MORN APPEARING
Q: "Moderato"
%R: air, march
B: "Edinburgh Repository of Music" v.2 p.104 #2 - p.105 #1
F: http://digital.nls.uk/special-collections-of-printed-music/pageturner.cfm?id=87776133
Z: 2015 John Chambers <jc:trillian.mit.edu>
M: C
L: 1/8
K: A
[|\
e3f e2a2 | e2d2 d2c2 | A3c c2B2 | B2(3(Bcd) d2c2 |\
e3f e2a2 | (e2d2) (d2c2) | A3c B2(3(Bcd) | c2B2 A2z2 |]
[|\
c3d c2c2 | {c}BABc A2A2 | E2E2 F3B | G2G2 A2z2 |\
c3d c2c2 | {c}BABc B2A2 | E3E F3B | A2G2 A2z2 |]
[|\
e3f e2a2 | e2d2 d2c2 | A3c c2B2 | B2(3Bcd d2c2 |\
e3f e2a2 | (e2d2) (d2c2) | A3c B2(3(Bcd) | c2B2 A2z2 |]
